icons/round/image/ic_image_aspect_ratio_24px.svg

<svg xmlns="http://www.w3.org/2000/svg" height="24" viewBox="0 0 24 24" width="24"><path d="M0 0h24v24H0z" fill="none"/><path d="M16 10h-2v2h2v-2zm0 4h-2v2h2v-2zm-8-4H6v2h2v-2zm4 0h-2v2h2v-2zm8-6H4c-1.1 0-2 .9-2 2v12c0 1.1.9 2 2 2h16c1.1 0 2-.9 2-2V6c0-1.1-.9-2-2-2zm-1 14H5c-.55 0-1-.45-1-1V7c0-.55.45-1 1-1h14c.55 0 1 .45 1 1v10c0 .55-.45 1-1 1z"/></svg>

<svg xmlns="http://www.w3.org/2000/svg" enable-background="new 0 0 24 24" height="24" viewBox="0 0 24 24" width="24"><g><rect fill="none" height="24" width="24"/></g><g><g><g><path d="M16,10h-2v2h2V10z M16,14h-2v2h2V14z M8,10H6v2h2V10z M12,10h-2v2h2V10z M20,4H4C2.9,4,2,4.9,2,6v12c0,1.1,0.9,2,2,2h16 c1.1,0,2-0.9,2-2V6C22,4.9,21.1,4,20,4z M20,18H4V6h16V18z"/></g></g></g></svg>
